icons/qappmenu-search.svg

<svg width="22" height="22" viewBox="0 0 22 22" fill="none" xmlns="http://www.w3.org/2000/svg">
<path fill-rule="evenodd" clip-rule="evenodd" d="M3.10562 8.36842C3.10562 5.45614 5.4565 3.10527 8.36878 3.10527C11.2811 3.10527 13.6319 5.45614 13.6319 8.36842C13.6319 11.2807 11.2811 13.6316 8.36878 13.6316C5.4565 13.6316 3.10562 11.2807 3.10562 8.36842ZM15.2939 13.5786H14.3905L14.0703 13.2699C15.191 11.9663 15.8656 10.2739 15.8656 8.43282C15.8656 4.32762 12.538 1 8.43282 1C4.32762 1 1 4.32762 1 8.43282C1 12.538 4.32762 15.8656 8.43282 15.8656C10.2739 15.8656 11.9663 15.191 13.2699 14.0703L13.5786 14.3905V15.2939L19.2962 21L21 19.2962L15.2939 13.5786Z" fill="#9B9B9B"/>
<path d="M15.2939 13.5786L15.6478 13.2254L15.5013 13.0786H15.2939V13.5786ZM14.3905 13.5786L14.0434 13.9385L14.1887 14.0786H14.3905V13.5786ZM14.0703 13.2699L13.6912 12.9439L13.3833 13.302L13.7233 13.6298L14.0703 13.2699ZM13.2699 14.0703L13.6298 13.7233L13.302 13.3833L12.9439 13.6912L13.2699 14.0703ZM13.5786 14.3905H14.0786V14.1887L13.9385 14.0434L13.5786 14.3905ZM13.5786 15.2939H13.0786V15.5013L13.2254 15.6478L13.5786 15.2939ZM19.2962 21L18.943 21.3539L19.2965 21.7068L19.6497 21.3536L19.2962 21ZM21 19.2962L21.3536 19.6497L21.7068 19.2965L21.3539 18.943L21 19.2962ZM3.60562 8.36842C3.60562 5.73229 5.73264 3.60527 8.36878 3.60527V2.60527C5.18035 2.60527 2.60562 5.18 2.60562 8.36842H3.60562ZM8.36878 3.60527C11.0049 3.60527 13.1319 5.73229 13.1319 8.36842H14.1319C14.1319 5.18 11.5572 2.60527 8.36878 2.60527V3.60527ZM13.1319 8.36842C13.1319 11.0046 11.0049 13.1316 8.36878 13.1316V14.1316C11.5572 14.1316 14.1319 11.5568 14.1319 8.36842H13.1319ZM8.36878 13.1316C5.73264 13.1316 3.60562 11.0046 3.60562 8.36842H2.60562C2.60562 11.5568 5.18035 14.1316 8.36878 14.1316V13.1316ZM15.2939 13.0786H14.3905V14.0786H15.2939V13.0786ZM14.7376 13.2187L14.4174 12.9099L13.7233 13.6298L14.0434 13.9385L14.7376 13.2187ZM14.4495 13.5958C15.645 12.2051 16.3656 10.3981 16.3656 8.43282H15.3656C15.3656 10.1496 14.7369 11.7274 13.6912 12.9439L14.4495 13.5958ZM16.3656 8.43282C16.3656 4.05147 12.8142 0.5 8.43282 0.5V1.5C12.2619 1.5 15.3656 4.60376 15.3656 8.43282H16.3656ZM8.43282 0.5C4.05147 0.5 0.5 4.05147 0.5 8.43282H1.5C1.5 4.60376 4.60376 1.5 8.43282 1.5V0.5ZM0.5 8.43282C0.5 12.8142 4.05147 16.3656 8.43282 16.3656V15.3656C4.60376 15.3656 1.5 12.2619 1.5 8.43282H0.5ZM8.43282 16.3656C10.3981 16.3656 12.2051 15.645 13.5958 14.4495L12.9439 13.6912C11.7274 14.7369 10.1496 15.3656 8.43282 15.3656V16.3656ZM12.9099 14.4174L13.2187 14.7376L13.9385 14.0434L13.6298 13.7233L12.9099 14.4174ZM13.0786 14.3905V15.2939H14.0786V14.3905H13.0786ZM13.2254 15.6478L18.943 21.3539L19.6494 20.6461L13.9318 14.94L13.2254 15.6478ZM19.6497 21.3536L21.3536 19.6497L20.6464 18.9426L18.9426 20.6464L19.6497 21.3536ZM21.3539 18.943L15.6478 13.2254L14.94 13.9318L20.6461 19.6494L21.3539 18.943Z" fill="#9B9B9B"/>
</svg>

<svg xmlns="http://www.w3.org/2000/svg" width="22" height="22" fill="none">
    <path fill="#9B9B9B" fill-rule="evenodd" d="M3.106 8.368a5.256 5.256 0 0 1 5.263-5.263 5.256 5.256 0 0 1 5.263 5.263 5.256 5.256 0 0 1-5.263 5.264 5.256 5.256 0 0 1-5.263-5.264m12.188 5.21h-.904l-.32-.308a7.4 7.4 0 0 0 1.796-4.837 7.433 7.433 0 1 0-7.433 7.433 7.4 7.4 0 0 0 4.837-1.796l.309.32v.904L19.296 21 21 19.296z" clip-rule="evenodd"/>
    <path fill="#9B9B9B" d="m15.294 13.579.354-.354-.147-.146h-.207zm-.904 0-.347.36.146.14h.201zm-.32-.31-.379-.325-.308.358.34.328zm-.8.801.36-.347-.328-.34-.358.308zm.309.32h.5v-.201l-.14-.146zm0 .904h-.5v.207l.146.147zM19.296 21l-.353.354.354.353.353-.353zM21 19.296l.354.354.353-.353-.353-.354zM3.606 8.368a4.756 4.756 0 0 1 4.763-4.763v-1a5.756 5.756 0 0 0-5.763 5.763zm4.763-4.763a4.756 4.756 0 0 1 4.763 4.763h1a5.756 5.756 0 0 0-5.763-5.763zm4.763 4.763a4.756 4.756 0 0 1-4.763 4.764v1a5.756 5.756 0 0 0 5.763-5.764zm-4.763 4.764a4.756 4.756 0 0 1-4.763-4.764h-1a5.756 5.756 0 0 0 5.763 5.764zm6.925-.053h-.904v1h.904zm-.556.14-.32-.31-.695.72.32.31zm-.288.377a7.9 7.9 0 0 0 1.916-5.163h-1a6.9 6.9 0 0 1-1.675 4.51zm1.916-5.163A7.933 7.933 0 0 0 8.433.5v1a6.933 6.933 0 0 1 6.933 6.933zM8.433.5A7.933 7.933 0 0 0 .5 8.433h1A6.933 6.933 0 0 1 8.433 1.5zM.5 8.433a7.933 7.933 0 0 0 7.933 7.933v-1A6.933 6.933 0 0 1 1.5 8.433zm7.933 7.933a7.9 7.9 0 0 0 5.163-1.916l-.652-.759a6.9 6.9 0 0 1-4.511 1.675zm4.477-1.949.309.32.72-.694-.31-.32zm.169-.027v.904h1v-.904zm.146 1.258 5.718 5.706.706-.708-5.717-5.706zm6.425 5.706 1.704-1.704-.708-.707-1.703 1.703zm1.704-2.411-5.706-5.718-.708.707 5.706 5.717z"/>
</svg>
